images/crust.svg

<svg height="250" viewBox="0 0 250 250" width="250" xmlns="http://www.w3.org/2000/svg"><path d="m195.570312 54.429688c38.976563 38.972656 38.976563 102.167968 0 141.140624-38.976562 38.976563-102.167968 38.976563-141.144531 0-38.976562-38.972656-38.976562-102.167968 0-141.140624 38.976563-38.976563 102.167969-38.976563 141.144531 0zm0 0" fill="#191919"/><path d="m85.546875 96.289062 42.96875-24.804687c1.5625-.78125 3.320313-.78125 4.882813 0l27.148437 15.625c2.734375 1.5625 3.125 5.273437.976563 7.617187l-9.179688 9.179688c-1.5625 1.5625-3.90625 1.757812-5.859375.78125l-13.085937-7.617188c-1.5625-.78125-3.320313-.78125-4.882813 0l-45.3125 26.5625v-23.046874c0-1.757813.78125-3.320313 2.34375-4.296876zm0 0" fill="#f08727"/><path d="m160.546875 162.890625-27.148437 15.625c-1.5625.78125-3.320313.78125-4.882813 0l-42.96875-24.804687c-1.5625-.78125-2.34375-2.34375-2.34375-4.101563v-21.09375l22.070313-12.890625v21.09375c0 1.757812.976562 3.320312 2.34375 4.101562l20.898437 12.109376c1.5625.78125 3.320313.78125 4.882813 0l13.28125-7.617188c1.953124-1.171875 4.296874-.78125 5.859374.78125l9.179688 9.179688c1.953125 2.148437 1.5625 6.054687-1.171875 7.617187zm0 0" fill="#fff"/></svg>

<!-- Generator: Adobe Illustrator 24.0.1, SVG Export Plug-In . SVG Version: 6.00 Build 0)  -->
<svg xmlns="http://www.w3.org/2000/svg" xmlns:xlink="http://www.w3.org/1999/xlink" width="250px" height="250px" viewBox="0 0 250 250" version="1.1">
<g id="surface1">
<path style=" stroke:none;fill-rule:nonzero;fill:rgb(9.803922%,9.803922%,9.803922%);fill-opacity:1;" d="M 195.570312 54.429688 C 234.546875 93.402344 234.546875 156.597656 195.570312 195.570312 C 156.59375 234.546875 93.402344 234.546875 54.425781 195.570312 C 15.449219 156.597656 15.449219 93.402344 54.425781 54.429688 C 93.402344 15.453125 156.59375 15.453125 195.570312 54.429688 Z M 195.570312 54.429688 "/>
<path style=" stroke:none;fill-rule:nonzero;fill:rgb(94.117647%,52.941179%,15.294118%);fill-opacity:1;" d="M 85.546875 96.289062 L 128.515625 71.484375 C 130.078125 70.703125 131.835938 70.703125 133.398438 71.484375 L 160.546875 87.109375 C 163.28125 88.671875 163.671875 92.382812 161.523438 94.726562 L 152.34375 103.90625 C 150.78125 105.46875 148.4375 105.664062 146.484375 104.6875 L 133.398438 97.070312 C 131.835938 96.289062 130.078125 96.289062 128.515625 97.070312 L 83.203125 123.632812 L 83.203125 100.585938 C 83.203125 98.828125 83.984375 97.265625 85.546875 96.289062 Z M 85.546875 96.289062 "/>
<path style=" stroke:none;fill-rule:nonzero;fill:rgb(100%,100%,100%);fill-opacity:1;" d="M 160.546875 162.890625 L 133.398438 178.515625 C 131.835938 179.296875 130.078125 179.296875 128.515625 178.515625 L 85.546875 153.710938 C 83.984375 152.929688 83.203125 151.367188 83.203125 149.609375 L 83.203125 128.515625 L 105.273438 115.625 L 105.273438 136.71875 C 105.273438 138.476562 106.25 140.039062 107.617188 140.820312 L 128.515625 152.929688 C 130.078125 153.710938 131.835938 153.710938 133.398438 152.929688 L 146.679688 145.3125 C 148.632812 144.140625 150.976562 144.53125 152.539062 146.09375 L 161.71875 155.273438 C 163.671875 157.421875 163.28125 161.328125 160.546875 162.890625 Z M 160.546875 162.890625 "/>
</g>
</svg>
